build/img/svg/te.svg

<svg width="16" height="16" viewBox="0 0 16 16" xmlns="http://www.w3.org/2000/svg">
<g clip-path="url(#clip0)">
<path d="M6.27788 10.1206L6.01321 13.8433C6.39188 13.8433 6.55588 13.6806 6.75255 13.4853L8.52788 11.7886L12.2065 14.4826C12.8812 14.8586 13.3566 14.6606 13.5386 13.8619L15.9532 2.54728L15.9539 2.54661C16.1679 1.54928 15.5932 1.15928 14.9359 1.40394L0.742542 6.83795C-0.226126 7.21395 -0.211459 7.75395 0.577875 7.99861L4.20654 9.12728L12.6352 3.85328C13.0319 3.59061 13.3926 3.73595 13.0959 3.99861L6.27788 10.1206Z"/>
</g>
<defs>
<clipPath id="clip0">
<rect width="16" height="16" fill="white"/>
</clipPath>
</defs>
</svg>

<svg width="16" height="16" xmlns="http://www.w3.org/2000/svg"><g clip-path="url(#clip0)"><path d="M6.278 10.12l-.265 3.723c.379 0 .543-.162.74-.358l1.775-1.696 3.678 2.694c.675.376 1.15.178 1.333-.621l2.414-11.315c.215-.998-.36-1.388-1.017-1.143L.743 6.838c-.97.376-.954.916-.165 1.16l3.629 1.13 8.428-5.275c.397-.262.758-.117.46.146L6.279 10.12z"/></g><defs><clipPath id="clip0"><path fill="#fff" d="M0 0h16v16H0z"/></clipPath></defs></svg>
